Newaita-dark/.places-ubuntu/scalable/folder-open.svg

<?xml version="1.0" encoding="UTF-8"?>
<svg xmlns="http://www.w3.org/2000/svg" xmlns:xlink="http://www.w3.org/1999/xlink" width="512pt" height="512pt" viewBox="0 0 512 512" version="1.1">
<defs>
<linearGradient id="linear0" gradientUnits="userSpaceOnUse" x1="254" y1="233.5" x2="254" y2="254.666672" gradientTransform="matrix(1.000095,0,0,1.000095,-0.000061041,225.604916)">
<stop offset="0" style="stop-color:rgb(0%,0%,0%);stop-opacity:0.27451;"/>
<stop offset="1" style="stop-color:rgb(0%,0%,0%);stop-opacity:0;"/>
</linearGradient>
<radialGradient id="radial0" gradientUnits="userSpaceOnUse" cx="450.908936" cy="189.579361" fx="450.908936" fy="189.579361" r="21.166656" gradientTransform="matrix(0.00000278673,-1.250119,-2.250215,-0.00000162462,865.843403,1028.109675)">
<stop offset="0" style="stop-color:rgb(0%,0%,0%);stop-opacity:0.313725;"/>
<stop offset="0.222222" style="stop-color:rgb(0%,0%,0%);stop-opacity:0.27451;"/>
<stop offset="1" style="stop-color:rgb(0%,0%,0%);stop-opacity:0;"/>
</radialGradient>
<radialGradient id="radial1" gradientUnits="userSpaceOnUse" cx="450.908936" cy="189.579361" fx="450.908936" fy="189.579361" r="21.166656" gradientTransform="matrix(-0.00000278673,1.250119,2.250215,0.00000162462,-357.794846,-109.855308)">
<stop offset="0" style="stop-color:rgb(0%,0%,0%);stop-opacity:0.313725;"/>
<stop offset="0.222222" style="stop-color:rgb(0%,0%,0%);stop-opacity:0.27451;"/>
<stop offset="1" style="stop-color:rgb(0%,0%,0%);stop-opacity:0;"/>
</radialGradient>
<radialGradient id="radial2" gradientUnits="userSpaceOnUse" cx="450.908936" cy="189.579361" fx="450.908936" fy="189.579361" r="21.166656" gradientTransform="matrix(-0.00000278673,-1.250119,2.250215,-0.00000162462,-357.794846,1028.109675)">
<stop offset="0" style="stop-color:rgb(0%,0%,0%);stop-opacity:0.313725;"/>
<stop offset="0.222222" style="stop-color:rgb(0%,0%,0%);stop-opacity:0.27451;"/>
<stop offset="1" style="stop-color:rgb(0%,0%,0%);stop-opacity:0;"/>
</radialGradient>
<radialGradient id="radial3" gradientUnits="userSpaceOnUse" cx="450.908936" cy="189.579361" fx="450.908936" fy="189.579361" r="21.166656" gradientTransform="matrix(0.00000278673,1.250119,-2.250215,0.00000162462,865.843372,-109.855315)">
<stop offset="0" style="stop-color:rgb(0%,0%,0%);stop-opacity:0.313725;"/>
<stop offset="0.222222" style="stop-color:rgb(0%,0%,0%);stop-opacity:0.27451;"/>
<stop offset="1" style="stop-color:rgb(0%,0%,0%);stop-opacity:0;"/>
</radialGradient>
<linearGradient id="linear1" gradientUnits="userSpaceOnUse" x1="317.5" y1="233.499985" x2="317.5" y2="-147.500015" gradientTransform="matrix(1.000095,0,0,1.000095,-0.00000301201,225.604885)">
<stop offset="0" style="stop-color:rgb(40.392157%,22.745098%,71.764706%);stop-opacity:1;"/>
<stop offset="1" style="stop-color:rgb(49.411765%,34.117647%,76.078431%);stop-opacity:1;"/>
</linearGradient>
<linearGradient id="linear2" gradientUnits="userSpaceOnUse" x1="254" y1="233.5" x2="254" y2="-84" gradientTransform="matrix(1,0,0,1,0.00000308626,10.583336)">
<stop offset="0" style="stop-color:rgb(87.843137%,87.843137%,87.843137%);stop-opacity:1;"/>
<stop offset="1" style="stop-color:rgb(93.333333%,93.333333%,93.333333%);stop-opacity:1;"/>
</linearGradient>
<linearGradient id="linear3" gradientUnits="userSpaceOnUse" x1="254" y1="-115.750008" x2="254" y2="233.5" gradientTransform="matrix(1.000095,0,0,1.000095,-0.00000301201,225.604885)">
<stop offset="0" style="stop-color:rgb(100%,54.117647%,39.607843%);stop-opacity:1;"/>
<stop offset="1" style="stop-color:rgb(100%,43.921569%,26.27451%);stop-opacity:1;"/>
</linearGradient>
</defs>
<g id="surface1">
<path style=" stroke:none;fill-rule:nonzero;fill:url(#linear0);" d="M 63.507812 459.128906 L 444.542969 459.128906 L 444.542969 480.296875 L 63.507812 480.296875 Z M 63.507812 459.128906 "/>
<path style=" stroke:none;fill-rule:nonzero;fill:url(#radial0);" d="M 444.542969 459.128906 L 486.878906 459.128906 L 486.878906 437.957031 L 444.542969 437.957031 Z M 444.542969 459.128906 "/>
<path style=" stroke:none;fill-rule:nonzero;fill:url(#radial1);" d="M 63.507812 459.128906 L 21.167969 459.128906 L 21.167969 480.296875 L 63.507812 480.296875 Z M 63.507812 459.128906 "/>
<path style=" stroke:none;fill-rule:nonzero;fill:url(#radial2);" d="M 63.507812 459.128906 L 21.167969 459.128906 L 21.167969 437.957031 L 63.507812 437.957031 Z M 63.507812 459.128906 "/>
<path style=" stroke:none;fill-rule:nonzero;fill:url(#radial3);" d="M 444.542969 459.128906 L 486.878906 459.128906 L 486.878906 480.296875 L 444.542969 480.296875 Z M 444.542969 459.128906 "/>
<path style=" stroke:none;fill-rule:nonzero;fill:url(#linear1);" d="M 116.429688 78.089844 C 104.699219 78.089844 95.257812 87.53125 95.257812 99.257812 L 95.257812 120.429688 L 42.335938 120.429688 C 30.609375 120.429688 21.167969 129.871094 21.167969 141.597656 L 21.167969 310.945312 C 21.167969 322.671875 30.609375 332.113281 42.335938 332.113281 L 465.710938 332.113281 C 477.4375 332.113281 486.878906 322.671875 486.878906 310.945312 L 486.878906 141.597656 C 486.878906 136.207031 484.882812 131.304688 481.585938 127.574219 L 481.585938 99.257812 C 481.585938 87.53125 472.144531 78.089844 460.417969 78.089844 Z M 116.429688 78.089844 "/>
<path style="fill-rule:nonzero;fill:url(#linear2);stroke-width:3;stroke-linecap:round;stroke-linejoin:miter;stroke:rgb(12.941177%,12.941177%,12.941177%);stroke-opacity:1;stroke-miterlimit:4;" d="M 52.916822 -73.415864 L 455.081542 -73.415864 C 460.92864 -73.415864 465.666469 -68.678036 465.666469 -62.834844 L 465.666469 106.500548 C 465.666469 112.34374 460.92864 117.081569 455.081542 117.081569 L 52.916822 117.081569 C 47.069724 117.081569 42.331895 112.34374 42.331895 106.500548 L 42.331895 -62.834844 C 42.331895 -68.678036 47.069724 -73.415864 52.916822 -73.415864 Z M 52.916822 -73.415864 " transform="matrix(1.000095,0,0,1.000095,0,215.020531)"/>
<path style=" stroke:none;fill-rule:nonzero;fill:rgb(90.196079%,90.196079%,90.196079%);fill-opacity:0.588235;" d="M 116.429688 78.089844 C 104.699219 78.089844 95.257812 87.53125 95.257812 99.257812 L 95.257812 101.90625 C 95.257812 90.179688 104.699219 80.738281 116.429688 80.738281 L 460.417969 80.738281 C 472.144531 80.738281 481.585938 90.179688 481.585938 101.90625 L 481.585938 99.257812 C 481.585938 87.53125 472.144531 78.089844 460.417969 78.089844 Z M 116.429688 78.089844 "/>
<path style=" stroke:none;fill-rule:nonzero;fill:rgb(12.941177%,12.941177%,12.941177%);fill-opacity:1;" d="M 116.429688 76.589844 C 103.894531 76.589844 93.757812 86.726562 93.757812 99.257812 L 93.757812 118.925781 L 42.335938 118.925781 C 29.804688 118.925781 19.667969 129.0625 19.667969 141.597656 L 19.667969 310.945312 C 19.667969 323.480469 29.804688 333.613281 42.335938 333.613281 L 465.710938 333.613281 C 478.242188 333.613281 488.378906 323.480469 488.378906 310.945312 L 488.378906 141.597656 C 488.378906 136.050781 486.382812 130.980469 483.089844 127.046875 L 483.089844 99.257812 C 483.089844 86.726562 472.953125 76.589844 460.417969 76.589844 Z M 116.429688 79.589844 L 460.417969 79.589844 C 471.339844 79.589844 480.085938 88.335938 480.085938 99.257812 L 480.085938 128.140625 L 480.464844 128.566406 C 483.523438 132.035156 485.378906 136.578125 485.378906 141.597656 L 485.378906 310.945312 C 485.378906 321.867188 476.632812 330.613281 465.710938 330.613281 L 42.335938 330.613281 C 31.414062 330.613281 22.667969 321.867188 22.667969 310.945312 L 22.667969 141.597656 C 22.667969 130.675781 31.414062 121.929688 42.335938 121.929688 L 96.757812 121.929688 L 96.757812 99.257812 C 96.757812 88.335938 105.503906 79.589844 116.429688 79.589844 Z M 116.429688 79.589844 "/>
<path style=" stroke:none;fill-rule:nonzero;fill:url(#linear3);" d="M 42.335938 215.6875 C 30.609375 215.6875 21.167969 225.128906 21.167969 236.855469 L 21.167969 437.957031 C 21.167969 449.6875 30.609375 459.128906 42.335938 459.128906 L 465.710938 459.128906 C 477.4375 459.128906 486.878906 449.6875 486.878906 437.957031 L 486.878906 236.855469 L 201.101562 236.855469 C 189.375 236.855469 179.933594 227.414062 179.933594 215.6875 Z M 42.335938 215.6875 "/>
<path style=" stroke:none;fill-rule:nonzero;fill:rgb(0%,0%,0%);fill-opacity:0.196078;" d="M 42.335938 459.128906 C 30.609375 459.128906 21.167969 449.6875 21.167969 437.957031 L 21.167969 435.3125 C 21.167969 447.039062 30.609375 456.480469 42.335938 456.480469 L 465.710938 456.480469 C 477.4375 456.480469 486.878906 447.039062 486.878906 435.3125 L 486.878906 437.957031 C 486.878906 449.6875 477.4375 459.128906 465.710938 459.128906 Z M 42.335938 459.128906 "/>
<path style=" stroke:none;fill-rule:nonzero;fill:rgb(90.196079%,90.196079%,90.196079%);fill-opacity:0.937255;" d="M 42.335938 215.6875 C 30.609375 215.6875 21.167969 225.128906 21.167969 236.855469 L 21.167969 239.503906 C 21.167969 227.773438 30.609375 218.332031 42.335938 218.332031 L 179.933594 218.332031 L 179.933594 215.6875 Z M 42.335938 215.6875 "/>
<path style=" stroke:none;fill-rule:nonzero;fill:rgb(90.196079%,90.196079%,90.196079%);fill-opacity:0.937255;" d="M 201.101562 239.503906 C 189.375 239.503906 179.933594 230.0625 179.933594 218.332031 L 179.933594 215.6875 C 179.933594 227.414062 189.375 236.878906 201.101562 236.855469 L 488.203125 236.855469 L 488.203125 239.503906 Z M 201.101562 239.503906 "/>
<path style=" stroke:none;fill-rule:nonzero;fill:rgb(12.941177%,12.941177%,12.941177%);fill-opacity:1;" d="M 42.335938 214.1875 C 29.804688 214.1875 19.667969 224.324219 19.667969 236.855469 L 19.667969 437.957031 C 19.667969 450.492188 29.804688 460.628906 42.335938 460.628906 L 465.710938 460.628906 C 478.242188 460.628906 488.378906 450.492188 488.378906 437.957031 L 488.378906 235.355469 L 201.101562 235.355469 C 190.179688 235.355469 181.433594 226.609375 181.433594 215.6875 L 181.433594 214.1875 Z M 42.335938 217.1875 L 178.507812 217.1875 C 179.285156 229.015625 189.078125 238.355469 201.101562 238.355469 L 485.378906 238.355469 L 485.378906 437.957031 C 485.378906 448.878906 476.632812 457.625 465.710938 457.625 L 42.335938 457.625 C 31.414062 457.625 22.667969 448.878906 22.667969 437.957031 L 22.667969 236.855469 C 22.667969 225.933594 31.414062 217.1875 42.335938 217.1875 Z M 42.335938 217.1875 "/>
</g>
</svg>

<svg xmlns="http://www.w3.org/2000/svg" width="512pt" height="512pt" viewBox="0 0 512 512"><defs><linearGradient id="a" gradientUnits="userSpaceOnUse" x1="254" y1="233.5" x2="254" y2="254.667" gradientTransform="matrix(1.0001 0 0 1.0001 0 225.605)"><stop offset="0" stop-opacity=".275"/><stop offset="1" stop-opacity="0"/></linearGradient><radialGradient id="b" gradientUnits="userSpaceOnUse" cx="450.909" cy="189.579" fx="450.909" fy="189.579" r="21.167" gradientTransform="matrix(0 -1.25012 -2.25021 0 865.843 1028.11)"><stop offset="0" stop-opacity=".314"/><stop offset=".222" stop-opacity=".275"/><stop offset="1" stop-opacity="0"/></radialGradient><radialGradient id="c" gradientUnits="userSpaceOnUse" cx="450.909" cy="189.579" fx="450.909" fy="189.579" r="21.167" gradientTransform="matrix(0 1.25012 2.25021 0 -357.795 -109.855)"><stop offset="0" stop-opacity=".314"/><stop offset=".222" stop-opacity=".275"/><stop offset="1" stop-opacity="0"/></radialGradient><radialGradient id="d" gradientUnits="userSpaceOnUse" cx="450.909" cy="189.579" fx="450.909" fy="189.579" r="21.167" gradientTransform="matrix(0 -1.25012 2.25021 0 -357.795 1028.11)"><stop offset="0" stop-opacity=".314"/><stop offset=".222" stop-opacity=".275"/><stop offset="1" stop-opacity="0"/></radialGradient><radialGradient id="e" gradientUnits="userSpaceOnUse" cx="450.909" cy="189.579" fx="450.909" fy="189.579" r="21.167" gradientTransform="matrix(0 1.25012 -2.25021 0 865.843 -109.855)"><stop offset="0" stop-opacity=".314"/><stop offset=".222" stop-opacity=".275"/><stop offset="1" stop-opacity="0"/></radialGradient><linearGradient id="f" gradientUnits="userSpaceOnUse" x1="317.5" y1="233.5" x2="317.5" y2="-147.5" gradientTransform="matrix(1.0001 0 0 1.0001 0 225.605)"><stop offset="0" stop-color="#673ab7"/><stop offset="1" stop-color="#7e57c2"/></linearGradient><linearGradient id="g" gradientUnits="userSpaceOnUse" x1="254" y1="233.5" x2="254" y2="-84" gradientTransform="translate(0 10.583)"><stop offset="0" stop-color="#e0e0e0"/><stop offset="1" stop-color="#eee"/></linearGradient><linearGradient id="h" gradientUnits="userSpaceOnUse" x1="254" y1="-115.75" x2="254" y2="233.5" gradientTransform="matrix(1.0001 0 0 1.0001 0 225.605)"><stop offset="0" stop-color="#ff8a65"/><stop offset="1" stop-color="#ff7043"/></linearGradient></defs><path d="M63.508 459.129h381.035v21.168H63.508zm0 0" fill="url(#a)"/><path d="M444.543 459.129h42.336v-21.172h-42.336zm0 0" fill="url(#b)"/><path d="M63.508 459.129h-42.34v21.168h42.34zm0 0" fill="url(#c)"/><path d="M63.508 459.129h-42.34v-21.172h42.34zm0 0" fill="url(#d)"/><path d="M444.543 459.129h42.336v21.168h-42.336zm0 0" fill="url(#e)"/><path d="M116.43 78.09a21.123 21.123 0 0 0-21.172 21.168v21.172H42.336a21.122 21.122 0 0 0-21.168 21.168v169.347a21.122 21.122 0 0 0 21.168 21.168H465.71a21.122 21.122 0 0 0 21.168-21.168V141.598c0-5.391-1.996-10.293-5.293-14.024V99.258a21.122 21.122 0 0 0-21.168-21.168zm0 0" fill="url(#f)"/><path d="M52.917-73.416h402.165c5.847 0 10.584 4.738 10.584 10.581v169.336c0 5.843-4.737 10.58-10.584 10.58H52.917c-5.847 0-10.585-4.737-10.585-10.58V-62.835c0-5.843 4.738-10.58 10.585-10.58zm0 0" transform="matrix(1.0001 0 0 1.0001 0 215.02)" fill="url(#g)" stroke-width="3" stroke-linecap="round" stroke="#212121"/><path d="M116.43 78.09a21.123 21.123 0 0 0-21.172 21.168v2.648a21.123 21.123 0 0 1 21.172-21.168h343.988a21.122 21.122 0 0 1 21.168 21.168v-2.648a21.122 21.122 0 0 0-21.168-21.168zm0 0" fill="#e6e6e6" fill-opacity=".588"/><path d="M116.43 76.59c-12.535 0-22.672 10.137-22.672 22.668v19.668H42.336c-12.531 0-22.668 10.136-22.668 22.672v169.347c0 12.535 10.137 22.668 22.668 22.668H465.71c12.531 0 22.668-10.133 22.668-22.668V141.598a22.59 22.59 0 0 0-5.29-14.551v-27.79c0-12.53-10.136-22.667-22.671-22.667zm0 3h343.988a19.592 19.592 0 0 1 19.668 19.668v28.883l.379.425a19.597 19.597 0 0 1 4.914 13.032v169.347a19.592 19.592 0 0 1-19.668 19.668H42.336a19.592 19.592 0 0 1-19.668-19.668V141.598a19.592 19.592 0 0 1 19.668-19.668h54.422V99.258A19.593 19.593 0 0 1 116.43 79.59zm0 0" fill="#212121"/><path d="M42.336 215.688a21.122 21.122 0 0 0-21.168 21.167v201.102a21.123 21.123 0 0 0 21.168 21.172H465.71a21.123 21.123 0 0 0 21.168-21.172V236.855H201.102a21.122 21.122 0 0 1-21.168-21.167zm0 0" fill="url(#h)"/><path d="M42.336 459.129a21.123 21.123 0 0 1-21.168-21.172v-2.644a21.122 21.122 0 0 0 21.168 21.167H465.71a21.122 21.122 0 0 0 21.168-21.168v2.645a21.123 21.123 0 0 1-21.168 21.172zm0 0" fill-opacity=".196"/><path d="M42.336 215.688a21.122 21.122 0 0 0-21.168 21.167v2.649a21.123 21.123 0 0 1 21.168-21.172h137.598v-2.644zm0 0" fill="#e6e6e6" fill-opacity=".937"/><path d="M201.102 239.504a21.123 21.123 0 0 1-21.168-21.172v-2.644c0 11.726 9.441 21.19 21.168 21.167h287.101v2.649zm0 0" fill="#e6e6e6" fill-opacity=".937"/><path d="M42.336 214.188c-12.531 0-22.668 10.136-22.668 22.667v201.102c0 12.535 10.137 22.672 22.668 22.672H465.71c12.531 0 22.668-10.137 22.668-22.672V235.355H201.102a19.592 19.592 0 0 1-19.668-19.667v-1.5zm0 3h136.172c.777 11.828 10.57 21.167 22.594 21.167h284.277v199.602a19.592 19.592 0 0 1-19.668 19.668H42.336a19.592 19.592 0 0 1-19.668-19.668V236.855a19.592 19.592 0 0 1 19.668-19.667zm0 0" fill="#212121"/></svg>
